recipes/linkedin/icon.svg

<svg height="80" viewBox="0 0 80 80" width="80" xmlns="http://www.w3.org/2000/svg" xmlns:xlink="http://www.w3.org/1999/xlink"><mask id="a" fill="#fff"><path d="m39.9984444 80h-39.9984444v-80h39.9984444 39.9984445v80z" fill="#fff" fill-rule="evenodd"/></mask><g fill="none" fill-rule="evenodd"><path d="m74.0798519 0h-68.17629634c-3.2562963 0-5.90370371 2.5837037-5.90370371 5.76888889v68.45925921c0 3.1851852 2.64740741 5.7718519 5.90370371 5.7718519h68.17629634c3.2637037 0 5.917037-2.5866667 5.917037-5.7718519v-68.45925921c0-3.18518519-2.6533333-5.76888889-5.917037-5.76888889" fill="#0065a1" mask="url(#a)"/><g fill="#fefefe"><path d="m17.7908148 11.0127407c3.7940741 0 6.8770371 3.082963 6.8770371 6.882963 0 3.797037-3.082963 6.88-6.8770371 6.88-3.8014815 0-6.877037-3.082963-6.877037-6.88 0-3.8 3.0755555-6.882963 6.877037-6.882963zm-5.9348148 57.1555556h11.8696296v-38.1777778h-11.8696296z"/><path d="m31.1675556 29.9906667h11.3807407v5.2207407h.162963c1.5837037-3.002963 5.4548148-6.1659259 11.2266666-6.1659259 12.0148148 0 14.2325926 7.9037037 14.2325926 18.1837037v20.9392592h-11.8592592v-18.5659259c0-4.4281481-.0785186-10.1229629-6.165926-10.1229629-6.1748148 0-7.117037 4.8266666-7.117037 9.8044444v18.8844444h-11.8607407z"/></g></g></svg>

<?xml version="1.0" encoding="UTF-8" standalone="no"?>
<svg width="80px" height="80px" viewBox="0 0 80 80" version="1.1" xmlns="http://www.w3.org/2000/svg" xmlns:xlink="http://www.w3.org/1999/xlink">
    <!-- Generator: Sketch 39.1 (31720) - http://www.bohemiancoding.com/sketch -->
    <title>linkedin</title>
    <desc>Created with Sketch.</desc>
    <defs>
        <polygon id="path-1" points="39.9984444 80 0 80 0 0 39.9984444 0 79.9968889 0 79.9968889 80 39.9984444 80"></polygon>
    </defs>
    <g id="icons" stroke="none" stroke-width="1" fill="none" fill-rule="evenodd">
        <g id="linkedin">
            <g id="Page-1">
                <g id="Group-7">
                    <mask id="mask-2" fill="white">
                        <use xlink:href="#path-1"></use>
                    </mask>
                    <g id="Clip-6"></g>
                    <path d="M74.0798519,0 L5.90355556,0 C2.64725926,0 -0.000148148149,2.5837037 -0.000148148149,5.76888889 L-0.000148148149,74.2281481 C-0.000148148149,77.4133333 2.64725926,80 5.90355556,80 L74.0798519,80 C77.3435556,80 79.9968889,77.4133333 79.9968889,74.2281481 L79.9968889,5.76888889 C79.9968889,2.5837037 77.3435556,0 74.0798519,0" id="Fill-5" fill="#0065A1" mask="url(#mask-2)"></path>
                </g>
                <path d="M17.7908148,11.0127407 C21.5848889,11.0127407 24.6678519,14.0957037 24.6678519,17.8957037 C24.6678519,21.6927407 21.5848889,24.7757037 17.7908148,24.7757037 C13.9893333,24.7757037 10.9137778,21.6927407 10.9137778,17.8957037 C10.9137778,14.0957037 13.9893333,11.0127407 17.7908148,11.0127407 L17.7908148,11.0127407 Z M11.856,68.1682963 L23.7256296,68.1682963 L23.7256296,29.9905185 L11.856,29.9905185 L11.856,68.1682963 Z" id="Fill-8" fill="#FEFEFE"></path>
                <path d="M31.1675556,29.9906667 L42.5482963,29.9906667 L42.5482963,35.2114074 L42.7112593,35.2114074 C44.294963,32.2084444 48.1660741,29.0454815 53.9379259,29.0454815 C65.9527407,29.0454815 68.1705185,36.9491852 68.1705185,47.2291852 L68.1705185,68.1684444 L56.3112593,68.1684444 L56.3112593,49.6025185 C56.3112593,45.1743704 56.2327407,39.4795556 50.1453333,39.4795556 C43.9705185,39.4795556 43.0282963,44.3062222 43.0282963,49.284 L43.0282963,68.1684444 L31.1675556,68.1684444 L31.1675556,29.9906667 Z" id="Fill-10" fill="#FEFEFE"></path>
            </g>
        </g>
    </g>
</svg>
